X:182
T: HAT EINS GESCHLAGEN KOMMT IMMER NOCH NICHT
N: K2375A
O: Europa, Mitteleuropa, Deutschland, Dresden
R: Kinder - Lied, Tanz -, Lauf - Spiel
M: 6/8
L: 1/8
K: G
D | A2AGGD | AAAF2
D | A2AGGD | AAAF2
D | G2GGGG | d2z3
D | G2GGGG | d2z3
D | G2GGGG | G2z3

@@@ Tune index: 7519
